icons/trophy-line.svg

<svg viewBox="0 0 24 24" fill="currentColor" xmlns="http://www.w3.org/2000/svg"><path d="M13.0049 16.9409V19.0027H18.0049V21.0027H6.00488V19.0027H11.0049V16.9409C7.05857 16.4488 4.00488 13.0824 4.00488 9.00275V3.00275H20.0049V9.00275C20.0049 13.0824 16.9512 16.4488 13.0049 16.9409ZM6.00488 5.00275V9.00275C6.00488 12.3165 8.69117 15.0027 12.0049 15.0027C15.3186 15.0027 18.0049 12.3165 18.0049 9.00275V5.00275H6.00488ZM1.00488 5.00275H3.00488V9.00275H1.00488V5.00275ZM21.0049 5.00275H23.0049V9.00275H21.0049V5.00275Z"/></svg>

<svg xmlns="http://www.w3.org/2000/svg" viewBox="0 0 24 24">
    <g>
        <path fill="none" d="M0 0h24v24H0z"/>
        <path d="M13 16.938V19h5v2H6v-2h5v-2.062A8.001 8.001 0 0 1 4 9V3h16v6a8.001 8.001 0 0 1-7 7.938zM6 5v4a6 6 0 1 0 12 0V5H6zM1 5h2v4H1V5zm20 0h2v4h-2V5z"/>
    </g>
</svg>
